!!!SOCIAL_FUNCTION:	cheyenne war song
!!!PDT:	1936
!!!OTL: No_3_I_Should_Like_to_Go.krn
!!!REG: Oklahoma and Montana
!!!LANG: Tone
!!!LING_GROUP: Algonquin
**kern
*staff1
=1-
*clefF4
*k[f#c#g#]
*M3/8
4r
8f#\
=2
[4e\
16e\LL]
16d\JJ
=3
*M5/8
8e\L
8B\
16A\L
16A\J
8.e\
16B\Jk
=4
*M2/4
8A\L
8A\J
8A\L
8A\J
=5
8A\L
8A\J
8A\
8r
=6
=
*M3/4
8A\L
8A\J
8A\L
8A\J
8A\L
8A\J
=7
8e\
24c#\LL
24d\
24c#\JJ
16B\LL
16A\J
8A\J
8e\L
8B\J
=8
*M2/4
16A\LK
8.A\J
16A\LL
16F#\J
8E\J
=9
16A\LL
16F#\J
8E\J
8D\L
16D\Jk
16r
=10
8A\L
8A\J
16e\LK
8.A\J
=11
12A\L
12F#\
12E\J
8A\L
8E\J
=12
*M3/4
16D\LK
8.E\J
8Cn/L
8AA/J
8D/L
8C/J
=13
8AA/L
8AA/J
8AA/L
8AA/J
8AA/L
8AA/J
=14
8AA/L
8AA/J
8AA/L
16AA/Jk
16r
4r
=15:|!
=
8AA/L
8AA/J
4AA/
4r
==
*-
